core/images/afterpay-white.svg

<?xml version="1.0" encoding="UTF-8"?>
<svg width="140px" height="29px" viewBox="0 0 140 29" version="1.1" xmlns="http://www.w3.org/2000/svg" xmlns:xlink="http://www.w3.org/1999/xlink">
    <g id="Symbols-+-navigation" stroke="none" stroke-width="1" fill="none" fill-rule="evenodd">
        <g id="Full.H.logout_wishlist" transform="translate(-71.000000, -22.000000)">
            <g id="Top-Nav---logged-out">
                <g id="afterpay_logo" transform="translate(71.000000, 22.000000)">
                    <path d="M68.6152083,14.6117708 C68.6152083,12.6935417 67.0458854,11.0949167 65.1856562,11.0949167 C63.325125,11.0949167 61.7555,12.6935417 61.7555,14.6117708 C61.7555,16.5013021 63.325125,18.1289271 65.1856562,18.1289271 C67.0458854,18.1289271 68.6152083,16.5013021 68.6152083,14.6117708 Z M70.0978333,9.69959375 C71.4058542,11.0366146 72.1323646,12.7805417 72.1323646,14.6117708 C72.1323646,16.4433021 71.4058542,18.1872292 70.0978333,19.52425 C68.7898125,20.8319688 67.0458854,21.5297813 65.1856562,21.5297813 C63.9646354,21.5297813 62.8599167,21.093875 61.9008021,20.2217604 L61.7555,20.1057604 L61.7555,27.8901458 L58.2386458,29 L58.2386458,7.95536458 L61.7555,7.95536458 L61.7555,9.00208333 L61.9008021,8.85647917 C62.9475208,7.83936458 64.1389375,7.6940625 65.1856562,7.6940625 C67.0168854,7.6940625 68.7608125,8.391875 70.0978333,9.69959375 Z" id="Fill-1" fill="#fff"></path>
                    <path d="M76.8998438,14.6117708 C76.8998438,16.5303021 78.4694688,18.1289271 80.33,18.1289271 C82.1902292,18.1289271 83.7595521,16.5303021 83.7595521,14.6117708 C83.7595521,12.7225417 82.1902292,11.0949167 80.33,11.0949167 C78.4694688,11.0949167 76.8998438,12.7225417 76.8998438,14.6117708 Z M75.4172188,19.52425 C74.1091979,18.1872292 73.3826875,16.4433021 73.3826875,14.6117708 C73.3826875,12.7805417 74.1091979,11.0366146 75.4172188,9.69959375 C76.7252396,8.391875 78.4694688,7.6940625 80.33,7.6940625 C81.5504167,7.6940625 82.6551354,8.12996875 83.61425,9.00208333 L83.7595521,9.11808333 L83.7595521,7.95536458 L87.2767083,7.95536458 L87.2767083,21.2684792 L83.7595521,21.2684792 L83.7595521,20.2217604 L83.61425,20.3673646 C82.5681354,21.3844792 81.3761146,21.5297812 80.33,21.5297812 C78.4984688,21.5297812 76.7548438,20.8319687 75.4172188,19.52425 Z" id="Fill-4" fill="#fff"></path>
                    <polyline id="Fill-7" fill="#fff" points="90.7944688 29 93.9630208 21.2974792 88.6436354 7.95536458 92.5383958 7.95536458 95.85225 16.2396979 99.2238021 7.95536458 103.089865 7.95536458 94.6022292 29 90.7944688 29"></polyline>
                    <path d="M6.80442708,9.93521875 C4.24185417,9.93521875 2.156875,12.0331875 2.156875,14.6117708 C2.156875,17.1903542 4.24185417,19.2883229 6.80442708,19.2883229 C9.36730208,19.2883229 11.4522812,17.1903542 11.4522812,14.6117708 C11.4522812,12.0331875 9.36730208,9.93521875 6.80442708,9.93521875 Z M6.80442708,21.3875 C4.98497917,21.3875 3.27246875,20.6927083 1.982875,19.4309062 C0.7050625,18.1243958 0,16.4118854 0,14.6117708 C0,12.8116563 0.7050625,11.0991458 1.98559375,9.79021875 C3.27277083,8.53113542 4.98497917,7.83634375 6.80442708,7.83634375 C8.64502083,7.83634375 10.1950104,8.81026042 11.1707396,9.62709375 L11.4522813,9.86271875 L11.4522813,8.12664583 L13.6094583,8.12664583 L13.6094583,21.0971979 L11.4522813,21.0971979 L11.4522813,19.3608229 L11.1707396,19.5961458 C10.1950104,20.4132812 8.64502083,21.3875 6.80442708,21.3875 Z" id="Fill-10" fill="#fff"></path>
                    <path d="M17.5144896,21.0971979 L17.5144896,10.1678229 L15.5379583,10.1678229 L15.5379583,8.12664583 L17.5144896,8.12664583 L17.5144896,4.29320833 C17.5144896,1.94420833 19.3795521,0.10421875 21.760875,0.10421875 L24.4735833,0.10421875 L23.9262083,2.14539583 L21.8191771,2.14539583 C20.6751875,2.14539583 19.6713646,3.17610417 19.6713646,4.35151042 L19.6713646,8.12664583 L23.7697292,8.12664583 L23.7697292,10.1678229 L19.6713646,10.1678229 L19.6713646,21.0971979 L17.5144896,21.0971979" id="Fill-11" fill="#fff"></path>
                    <path d="M31.9045312,21.0971979 C29.5627812,21.0971979 27.6581458,19.1916562 27.6581458,16.8502083 L27.6581458,10.1678229 L25.6813125,10.1678229 L25.6813125,8.12664583 L27.6581458,8.12664583 L27.6581458,0.10421875 L29.8147187,0.10421875 L29.8147187,8.12664583 L33.9133854,8.12664583 L33.9133854,10.1678229 L29.8147187,10.1678229 L29.8147187,16.7922083 C29.8147187,17.9769792 30.8387812,19.0560208 31.9631354,19.0560208 L34.0695625,19.0560208 L34.6172396,21.0971979 L31.9045312,21.0971979" id="Fill-12" fill="#fff"></path>
                    <path d="M41.1935938,10.0222188 C39.5260938,10.0222188 37.9779167,11.2245104 37.3405208,13.0140521 L37.3196771,13.0530208 L37.1964271,13.3007292 L45.1925729,13.3007292 L45.0379063,12.9944167 C44.4403854,11.2257188 42.8916042,10.0222188 41.1935938,10.0222188 Z M41.1899688,21.3295 C39.5019271,21.3282917 37.9489167,20.62625 36.8164063,19.3523646 C35.7772396,18.2268021 35.1694479,16.8154688 35.0567708,15.2681979 C35.028375,15.0645938 35.028375,14.8730729 35.028375,14.6700729 C35.028375,14.1619688 35.0857708,13.6463125 35.19875,13.1376042 C35.4485729,11.9715625 36.0074271,10.8831563 36.8155,9.98898958 C37.9413646,8.75044792 39.5372708,8.03964583 41.1935938,8.03964583 C42.8644167,8.03964583 44.4304167,8.732625 45.6028021,9.99080208 C46.4441042,10.922125 47.0029583,12.0090208 47.2168333,13.1324688 C47.386,14.1254167 47.3902292,14.7419688 47.3721042,15.051 L37.09825,15.051 L37.09825,15.2805833 C37.399125,17.577625 39.1327813,19.3161146 41.132875,19.3469271 C42.3623542,19.2868125 43.5752188,18.7838438 44.4156146,17.9945 L46.215125,19.0690104 C45.7266563,19.5864792 45.20375,20.0121146 44.6216354,20.3664583 C43.6727917,20.9355833 42.4859063,21.2687812 41.1899688,21.3295 Z" id="Fill-13" fill="#fff"></path>
                    <path d="M49.4903125,21.0971979 L49.4903125,8.12664583 L51.6477917,8.12664583 L51.6477917,9.76605208 L51.9459479,9.43678125 C52.7108229,8.59276042 54.9592292,7.90491667 56.4539375,7.84117708 L55.9277083,9.99533333 C53.5554479,10.0633021 51.6477917,11.9126562 51.6477917,14.1758646 L51.6477917,21.0971979 L49.4903125,21.0971979" id="Fill-14" fill="#fff"></path>
                    <path d="M121.714208,11.6323229 C122.996552,10.8901042 124.202167,10.1919896 125.491458,9.44584375 C125.073979,8.71329167 125.175781,8.88940625 124.795458,8.19823958 C124.392479,7.46598958 124.544427,7.17810417 125.376667,7.1720625 C127.799979,7.15514583 130.223896,7.15303125 132.647208,7.16571875 C133.367073,7.16964583 133.540771,7.47777083 133.179781,8.11275 C131.981115,10.2206875 130.769156,12.3210729 129.546323,14.4151146 C129.155729,15.083625 128.814073,15.0821146 128.405958,14.4281042 C127.986667,13.7559687 128.098438,13.9221146 127.649844,13.1602604 C126.385625,13.8943229 125.122313,14.6280833 123.884677,15.3467396 C123.95899,15.5406771 124.053844,15.6651354 124.131479,15.8001667 C125.06401,17.4232604 125.480583,18.1984062 126.444229,19.8030729 C127.586104,21.7046875 129.979813,21.8191771 131.339188,20.0616562 C131.490229,19.8662083 131.628583,19.6586771 131.752135,19.4448021 C134.039208,15.4832812 136.32749,11.5226667 138.600969,7.55329167 C138.831458,7.15152083 139.039292,6.71259375 139.139281,6.26430208 C139.537729,4.47747917 138.212188,2.78822917 136.34924,2.77826042 C131.44824,2.75228125 126.546333,2.74835417 121.645333,2.79155208 C119.412938,2.8111875 118.071385,5.04630208 119.051948,7.01075 C119.371552,7.65026042 119.754896,8.25805208 120.114073,8.877625 C120.789833,10.0439687 120.968365,10.3508854 121.714208,11.6323229" id="Fill-16" fill="#306E9A"></path>
                    <path d="M110.816854,23.8712292 C110.818969,22.4009896 110.822896,19.5230417 110.822896,19.5230417 C110.822896,19.5230417 110.22024,19.5166979 109.405823,19.5166979 C108.576604,19.5166979 108.405625,19.2236771 108.814948,18.5068333 C110.007573,16.4191354 111.21349,14.3386875 112.431792,12.2657917 C112.793688,11.6501458 113.114198,11.5960729 113.509625,12.2805937 C114.712521,14.3640625 115.919344,16.4454167 117.106531,18.5379479 C117.485646,19.2058542 117.314063,19.4982708 116.54949,19.5227396 C115.760146,19.5227396 115.085292,19.5218333 115.085292,19.5218333 L115.08499,23.8830104 C115.08499,23.8830104 118.302781,23.8836146 120.183854,23.8836146 C122.383927,23.8509896 123.674729,21.8545208 122.844,19.8127396 C122.751865,19.585875 122.642813,19.3638437 122.520771,19.1511771 C120.26149,15.2153333 118.003115,11.2788854 115.730542,7.35059375 C115.500354,6.95305208 115.227573,6.5558125 114.892865,6.24678125 C113.55826,5.01458333 111.44851,5.31032292 110.512052,6.90351042 C108.047958,11.0955208 105.602594,15.2993125 103.197708,19.5254583 C102.102354,21.4506354 103.351469,23.7153542 105.525563,23.8525 C106.233344,23.8972083 109.255688,23.8712292 110.816854,23.8712292" id="Fill-18" fill="#1F4066"></path>
                </g>
            </g>
        </g>
    </g>
</svg>

<?xml version="1.0" encoding="UTF-8" standalone="no"?>
<svg
   xmlns:dc="http://purl.org/dc/elements/1.1/"
   xmlns:cc="http://creativecommons.org/ns#"
   xmlns:rdf="http://www.w3.org/1999/02/22-rdf-syntax-ns#"
   xmlns:svg="http://www.w3.org/2000/svg"
   xmlns="http://www.w3.org/2000/svg"
   xmlns:sodipodi="http://sodipodi.sourceforge.net/DTD/sodipodi-0.dtd"
   xmlns:inkscape="http://www.inkscape.org/namespaces/inkscape"
   width="85"
   height="18"
   viewBox="0 0 85 18"
   version="1.1"
   id="svg16"
   sodipodi:docname="afterpay-white.svg"
   inkscape:version="0.92.5 (2060ec1f9f, 2020-04-08)">
  <metadata
     id="metadata22">
    <rdf:RDF>
      <cc:Work
         rdf:about="">
        <dc:format>image/svg+xml</dc:format>
        <dc:type
           rdf:resource="http://purl.org/dc/dcmitype/StillImage" />
        <dc:title></dc:title>
      </cc:Work>
    </rdf:RDF>
  </metadata>
  <defs
     id="defs20" />
  <sodipodi:namedview
     pagecolor="#ffffff"
     bordercolor="#666666"
     borderopacity="1"
     objecttolerance="10"
     gridtolerance="10"
     guidetolerance="10"
     inkscape:pageopacity="0"
     inkscape:pageshadow="2"
     inkscape:window-width="1366"
     inkscape:window-height="716"
     id="namedview18"
     showgrid="false"
     inkscape:zoom="1.9857143"
     inkscape:cx="70"
     inkscape:cy="14.5"
     inkscape:window-x="0"
     inkscape:window-y="0"
     inkscape:window-maximized="1"
     inkscape:current-layer="svg16" />
  <g
     id="Symbols-+-navigation"
     transform="matrix(0.61058701,0,0,0.61058701,0,0.292977)"
     style="fill:none;fill-rule:evenodd;stroke:none;stroke-width:1">
    <g
       id="Full.H.logout_wishlist"
       transform="translate(-71,-22)">
      <g
         id="Top-Nav---logged-out">
        <g
           id="afterpay_logo"
           transform="translate(71,22)">
          <path
             d="m 68.615208,14.611771 c 0,-1.918229 -1.569323,-3.516854 -3.429552,-3.516854 -1.860531,0 -3.430156,1.598625 -3.430156,3.516854 0,1.889531 1.569625,3.517156 3.430156,3.517156 1.860229,0 3.429552,-1.627625 3.429552,-3.517156 z m 1.482625,-4.9121772 c 1.308021,1.3370212 2.034532,3.0809482 2.034532,4.9121772 0,1.831531 -0.726511,3.575458 -2.034532,4.912479 -1.308021,1.307719 -3.051948,2.005531 -4.912177,2.005531 -1.221021,0 -2.325739,-0.435906 -3.284854,-1.308021 l -0.145302,-0.116 v 7.784386 L 58.238646,29 V 7.9553646 H 61.7555 v 1.0467187 l 0.145302,-0.1456041 c 1.046719,-1.0171146 2.238135,-1.1624167 3.284854,-1.1624167 1.831229,0 3.575156,0.6978125 4.912177,2.0055313 z"
             id="Fill-1"
             inkscape:connector-curvature="0"
             style="fill:#ffffff" />
          <path
             d="m 76.899844,14.611771 c 0,1.918531 1.569625,3.517156 3.430156,3.517156 1.860229,0 3.429552,-1.598625 3.429552,-3.517156 0,-1.889229 -1.569323,-3.516854 -3.429552,-3.516854 -1.860531,0 -3.430156,1.627625 -3.430156,3.516854 z m -1.482625,4.912479 c -1.308021,-1.337021 -2.034531,-3.080948 -2.034531,-4.912479 0,-1.831229 0.72651,-3.575156 2.034531,-4.9121772 C 76.72524,8.391875 78.469469,7.6940625 80.33,7.6940625 c 1.220417,0 2.325135,0.4359063 3.28425,1.3080208 l 0.145302,0.116 V 7.9553646 h 3.517156 V 21.268479 H 83.759552 V 20.22176 l -0.145302,0.145605 c -1.046115,1.017114 -2.238135,1.162416 -3.28425,1.162416 -1.831531,0 -3.575156,-0.697812 -4.912781,-2.005531 z"
             id="Fill-4"
             inkscape:connector-curvature="0"
             style="fill:#ffffff" />
          <polyline
             id="Fill-7"
             points="90.7944688 29 93.9630208 21.2974792 88.6436354 7.95536458 92.5383958 7.95536458 95.85225 16.2396979 99.2238021 7.95536458 103.089865 7.95536458 94.6022292 29 90.7944688 29"
             style="fill:#ffffff" />
          <path
             d="m 6.8044271,9.9352188 c -2.5625729,0 -4.6475521,2.0979692 -4.6475521,4.6765522 0,2.578583 2.0849792,4.676552 4.6475521,4.676552 2.562875,0 4.6478539,-2.097969 4.6478539,-4.676552 0,-2.578583 -2.0849789,-4.6765522 -4.6478539,-4.6765522 z m 0,11.4522812 C 4.9849792,21.3875 3.2724687,20.692708 1.982875,19.430906 0.7050625,18.124396 0,16.411885 0,14.611771 0,12.811656 0.7050625,11.099146 1.9855938,9.7902187 c 1.287177,-1.2590833 2.9993854,-1.953875 4.8188333,-1.953875 1.8405937,0 3.3905829,0.9739167 4.3663129,1.7907501 l 0.281541,0.235625 v -1.736073 h 2.157177 V 21.097198 H 11.452281 V 19.360823 L 11.17074,19.596146 C 10.19501,20.413281 8.6450208,21.3875 6.8044271,21.3875 Z"
             id="Fill-10"
             inkscape:connector-curvature="0"
             style="fill:#ffffff" />
          <path
             d="M 17.51449,21.097198 V 10.167823 H 15.537958 V 8.1266458 H 17.51449 V 4.2932083 c 0,-2.349 1.865062,-4.18898955 4.246385,-4.18898955 h 2.712708 L 23.926208,2.1453958 h -2.107031 c -1.14399,0 -2.147812,1.0307084 -2.147812,2.2061146 v 3.7751354 h 4.098364 V 10.167823 H 19.671365 V 21.097198 H 17.51449"
             id="Fill-11"
             inkscape:connector-curvature="0"
             style="fill:#ffffff" />
          <path
             d="m 31.904531,21.097198 c -2.34175,0 -4.246385,-1.905542 -4.246385,-4.24699 V 10.167823 H 25.681312 V 8.1266458 h 1.976834 V 0.10421875 h 2.156573 V 8.1266458 h 4.098666 v 2.0411772 h -4.098666 v 6.624385 c 0,1.184771 1.024062,2.263813 2.148416,2.263813 h 2.106428 l 0.547677,2.041177 h -2.712709"
             id="Fill-12"
             inkscape:connector-curvature="0"
             style="fill:#ffffff" />
          <path
             d="m 41.193594,10.022219 c -1.6675,0 -3.215677,1.202291 -3.853073,2.991833 l -0.02084,0.03897 -0.12325,0.247708 h 7.996146 L 45.03791,12.994418 C 44.440389,11.22572 42.891608,10.02222 41.193598,10.02222 Z m -0.0036,11.307281 c -1.688042,-0.0012 -3.241052,-0.70325 -4.373563,-1.977135 -1.039166,-1.125563 -1.646958,-2.536896 -1.759635,-4.084167 -0.0284,-0.203604 -0.0284,-0.395125 -0.0284,-0.598125 0,-0.508104 0.0574,-1.02376 0.170375,-1.532469 0.249823,-1.166042 0.808677,-2.254448 1.61675,-3.1486144 1.125865,-1.2385417 2.721771,-1.9493438 4.378094,-1.9493438 1.670823,0 3.236823,0.6929792 4.409208,1.9511563 0.841302,0.9313229 1.400156,2.0182189 1.614031,3.1416669 0.169167,0.992948 0.173396,1.6095 0.155271,1.918531 H 37.09825 v 0.229583 c 0.300875,2.297042 2.034531,4.035532 4.034625,4.066344 1.229479,-0.06011 2.442344,-0.563083 3.28274,-1.352427 l 1.79951,1.07451 c -0.488469,0.517469 -1.011375,0.943105 -1.59349,1.297448 -0.948843,0.569125 -2.135729,0.902323 -3.431666,0.963042 z"
             id="Fill-13"
             inkscape:connector-curvature="0"
             style="fill:#ffffff" />
          <path
             d="M 49.490313,21.097198 V 8.1266458 h 2.157479 v 1.6394063 l 0.298156,-0.3292709 c 0.764875,-0.8440208 3.013281,-1.5318645 4.50799,-1.5956041 l -0.52623,2.1541562 c -2.37226,0.067969 -4.279916,1.9173227 -4.279916,4.1805317 v 6.921333 h -2.157479"
             id="Fill-14"
             inkscape:connector-curvature="0"
             style="fill:#ffffff" />
          <path
             d="m 121.71421,11.632323 c 1.28234,-0.742219 2.48796,-1.440333 3.77725,-2.1864792 -0.41748,-0.7325521 -0.31568,-0.5564375 -0.696,-1.2476042 -0.40298,-0.73225 -0.25103,-1.0201354 0.58121,-1.0261771 2.42331,-0.016917 4.84723,-0.019031 7.27054,-0.00634 0.71986,0.00393 0.89356,0.3120521 0.53257,0.9470313 -1.19867,2.1079382 -2.41062,4.2083232 -3.63346,6.3023652 -0.39059,0.66851 -0.73225,0.667 -1.14036,0.01299 -0.41929,-0.672135 -0.30752,-0.505989 -0.75612,-1.267844 -1.26421,0.734063 -2.52753,1.467823 -3.76516,2.18648 0.0743,0.193937 0.16916,0.318395 0.2468,0.453427 0.93253,1.623093 1.3491,2.398239 2.31275,4.002906 1.14187,1.901614 3.53558,2.016104 4.89496,0.258583 0.15104,-0.195448 0.28939,-0.402979 0.41294,-0.616854 2.28708,-3.961521 4.57536,-7.922135 6.84884,-11.8915105 0.23049,-0.4017709 0.43832,-0.840698 0.53831,-1.2889896 0.39845,-1.7868229 -0.92709,-3.4760729 -2.79004,-3.4860417 -4.901,-0.025979 -9.80291,-0.029906 -14.70391,0.013292 -2.23239,0.019635 -3.57394,2.25475 -2.59338,4.2191979 0.3196,0.6395104 0.70295,1.2473021 1.06212,1.866875 0.67576,1.1663439 0.8543,1.4732599 1.60014,2.7546979"
             id="Fill-16"
             inkscape:connector-curvature="0"
             style="fill:#306e9a" />
          <path
             d="m 110.81685,23.871229 c 0.002,-1.470239 0.006,-4.348187 0.006,-4.348187 0,0 -0.60266,-0.0063 -1.41708,-0.0063 -0.82922,0 -1.00019,-0.293021 -0.59087,-1.009865 1.19262,-2.087698 2.39854,-4.168145 3.61684,-6.241041 0.3619,-0.615646 0.68241,-0.669719 1.07784,0.0148 1.20289,2.083468 2.40971,4.164823 3.5969,6.257354 0.37912,0.667906 0.20753,0.960323 -0.55704,0.984792 -0.78934,0 -1.4642,-9.07e-4 -1.4642,-9.07e-4 l -3e-4,4.361177 c 0,0 3.21779,6.05e-4 5.09886,6.05e-4 2.20008,-0.03262 3.49088,-2.029094 2.66015,-4.070875 -0.0921,-0.226865 -0.20119,-0.448896 -0.32323,-0.661563 -2.25928,-3.935844 -4.51766,-7.872292 -6.79023,-11.8005833 -0.23019,-0.3975416 -0.50297,-0.7947812 -0.83767,-1.1038125 -1.33461,-1.2321979 -3.44436,-0.9364583 -4.38082,0.6567292 -2.46409,4.1920106 -4.90946,8.3958016 -7.31434,12.6219476 -1.09536,1.925177 0.15376,4.189896 2.32785,4.327042 0.70778,0.04471 3.73013,0.01873 5.29129,0.01873"
             id="Fill-18"
             inkscape:connector-curvature="0"
             style="fill:#1f4066" />
        </g>
      </g>
    </g>
  </g>
</svg>
